X:138
T:Luggelaw
N:"Moderate"
B:O'Neill's 138
Z:Transcribed by henrik.norbeck@mailbox.swipnet.se
M:3/4
L:1/8
K:G
G/A/ BB|AB cd ee|dB GA Bd|d2 BG BAG|G z GA BB|
AB cd ee|dB GA Bd|ed BG BAG|G2 z||
d de|e2 g2 fed|Bd d2 ef/g/|B2 cB AG|A2 z B cB|
AB cd ee|dB HGA Bd|ed BG BAG|G2 z||
